assets/images/MobX.svg

<svg width="24" height="24" viewBox="0 0 24 24" fill="none" xmlns="http://www.w3.org/2000/svg">
<path d="M1.402 0C0.625 0 0 0.625 0 1.402V22.598C0 23.375 0.625 24 1.402 24H22.598C23.375 24 24 23.375 24 22.598V1.402C24 0.625 23.375 0 22.598 0H1.402ZM4.284 4.367H7.322V17.435H4.284V16.449H6.147V5.352H4.284V4.367ZM16.678 4.367H19.716V5.352H17.853V16.45H19.716V17.436H16.678V4.367ZM8.822 7.917H10.172C10.28 8.358 10.406 8.831 10.55 9.335C10.703 9.83 10.86 10.325 11.022 10.82C11.193 11.306 11.364 11.778 11.535 12.237C11.706 12.697 11.868 13.106 12.021 13.466C12.174 13.106 12.336 12.696 12.507 12.237C12.678 11.778 12.845 11.306 13.007 10.82C13.177 10.325 13.335 9.83 13.479 9.335C13.632 8.831 13.763 8.358 13.871 7.917H15.167C14.8262 9.19989 14.4115 10.462 13.925 11.697C13.5041 12.7909 13.0492 13.8714 12.561 14.937H11.427C10.9383 13.8699 10.4791 12.7894 10.05 11.697C9.57218 10.4603 9.16223 9.19841 8.822 7.917Z" fill="#626262"/>
</svg>

<svg width="24" height="24" viewBox="0 0 24 24" fill="none" xmlns="http://www.w3.org/2000/svg"><path d="M1.402 0C.625 0 0 .625 0 1.402v21.196C0 23.375.625 24 1.402 24h21.196c.777 0 1.402-.625 1.402-1.402V1.402C24 .625 23.375 0 22.598 0H1.402Zm2.882 4.367h3.038v13.068H4.284v-.986h1.863V5.352H4.284v-.985Zm12.394 0h3.038v.985h-1.863V16.45h1.863v.986h-3.038V4.367Zm-7.856 3.55h1.35c.108.441.234.914.378 1.418.153.495.31.99.472 1.485.171.486.342.958.513 1.417.171.46.333.869.486 1.229.153-.36.315-.77.486-1.229.171-.459.338-.931.5-1.417.17-.495.328-.99.472-1.485.153-.504.284-.977.392-1.418h1.296a34.436 34.436 0 0 1-1.242 3.78 56.437 56.437 0 0 1-1.364 3.24h-1.134a63.818 63.818 0 0 1-1.377-3.24 36.423 36.423 0 0 1-1.228-3.78Z" fill="#626262"/></svg>
